X:1
T:Title
%%score { ( 1 3 4 ) | 2 }
L:1/8
Q:1/4=106
M:4/4
K:Bb
V:1 treble nm="Grand Piano"
V:3 treble 
V:4 treble 
V:2 bass 
V:1
 [Fd]2 [DB]>[EG] [DF]2 [B,D]2 | [EG]4 [DF]2 F2 | A3 A B3 =B | c6 z c | %4
w: Chas.~H.~Gabriel * * * *||||
 [Fd]2 [DB]>[EG] [DF]2 [B,D]2 | [EG]4 [DF]2 z2 | F2 =EF [EA]2 [EG]2 | F6 z2 | c6 z2 | B4 z4 | %10
w: ||||||
 [Fc]3 [Fc] [FB]2 c2 |[M:3/4] d6 |[M:1/4] [Fc]2 |[M:4/4] [GB]3 [GB] [FA]2 [EG]2 | [DF]4 [FB]4 | %15
w: |||||
 A2 A>A G2 A2 | [DB]6 z2 |] %17
w: ||
V:2
 [B,,B,]2 [B,,B,]>[B,,B,] [B,,B,]2 [B,,F,]2 | [B,,B,]4 [B,,B,]2 [D,B,]2 | %2
 [F,CE]3 [F,CE] [F,B,D]3 [F,_A,D] | [F,A,E]6 z =E | [B,,B,]2 [B,,B,]>[B,,B,] [B,,B,]2 [B,,F,]2 | %5
 [B,,B,]4 [B,,B,]2 z2 | [C,A,C]2 [C,G,C][C,A,C] [C,C]2 [C,B,]2 | [F,A,]6 z2 | %8
 [F,A,E]2 [F,A,]>[F,A,] [F,A,]4 | [B,,B,]2 [B,,F,]>[B,,G,] [B,,B,]2 [D,B,]2 | %10
 [F,A,]3 [E,A,] [D,B,]2[K:treble] [F,A,F]2 |[M:3/4] [B,F]2[K:bass] B,2 B,2 |[M:1/4] [D,B,]2 | %13
[M:4/4] [E,B,]3 [E,B,] [E,B,]2 [E,B,]2 | [B,,B,]4 [D,B,]4 | [F,CE]2 [F,CE]>[F,CE] [F,CE]2 [F,E]2 | %16
 [B,,F,]6 z2 |] %17
V:3
 x8 | x8 | x8 | x8 | x8 | x8 | x8 | x8 | z2 E>E z2 d>c | D2 D>E [DF]2 [FB]2 | x8 | %11
[M:3/4] z2 F2 F2 |[M:1/4] x2 |[M:4/4] x8 | x8 | x8 | x8 |] %17
V:4
 x8 | x8 | x8 | x8 | x8 | x8 | x8 | x8 | z4 E4 | x8 | x8 |[M:3/4] x6 |[M:1/4] x2 |[M:4/4] x8 | x8 | %15
 x8 | x8 |] %17

